images/50368396.svg

<?xml version="1.0" encoding="UTF-8"?>
<svg xmlns="http://www.w3.org/2000/svg" xmlns:xlink="http://www.w3.org/1999/xlink" width="300pt" height="300pt" viewBox="0 0 300 300" version="1.1">
<defs>
<g>
<symbol overflow="visible" id="glyph0-0">
<path style="stroke:none;" d="M 0.546875 1.9375 L 0.546875 -7.75 L 6.046875 -7.75 L 6.046875 1.9375 Z M 1.171875 1.328125 L 5.4375 1.328125 L 5.4375 -7.140625 L 1.171875 -7.140625 Z M 1.171875 1.328125 "/>
</symbol>
<symbol overflow="visible" id="glyph0-1">
<path style="stroke:none;" d="M 4.328125 -7.28125 C 3.546875 -7.28125 2.921875 -6.984375 2.453125 -6.390625 C 1.992188 -5.804688 1.765625 -5.007812 1.765625 -4 C 1.765625 -2.988281 1.992188 -2.1875 2.453125 -1.59375 C 2.921875 -1.007812 3.546875 -0.71875 4.328125 -0.71875 C 5.117188 -0.71875 5.742188 -1.007812 6.203125 -1.59375 C 6.660156 -2.1875 6.890625 -2.988281 6.890625 -4 C 6.890625 -5.007812 6.660156 -5.804688 6.203125 -6.390625 C 5.742188 -6.984375 5.117188 -7.28125 4.328125 -7.28125 Z M 4.328125 -8.171875 C 5.453125 -8.171875 6.351562 -7.789062 7.03125 -7.03125 C 7.707031 -6.28125 8.046875 -5.269531 8.046875 -4 C 8.046875 -2.738281 7.707031 -1.726562 7.03125 -0.96875 C 6.351562 -0.21875 5.453125 0.15625 4.328125 0.15625 C 3.203125 0.15625 2.300781 -0.21875 1.625 -0.96875 C 0.957031 -1.71875 0.625 -2.726562 0.625 -4 C 0.625 -5.269531 0.957031 -6.28125 1.625 -7.03125 C 2.300781 -7.789062 3.203125 -8.171875 4.328125 -8.171875 Z M 4.328125 -8.171875 "/>
</symbol>
<symbol overflow="visible" id="glyph0-2">
<path style="stroke:none;" d="M 1.078125 -8.015625 L 2.546875 -8.015625 L 6.09375 -1.3125 L 6.09375 -8.015625 L 7.15625 -8.015625 L 7.15625 0 L 5.6875 0 L 2.125 -6.703125 L 2.125 0 L 1.078125 0 Z M 1.078125 -8.015625 "/>
</symbol>
<symbol overflow="visible" id="glyph0-3">
<path style="stroke:none;" d="M 1.078125 -8.015625 L 2.171875 -8.015625 L 2.171875 -4.734375 L 6.109375 -4.734375 L 6.109375 -8.015625 L 7.1875 -8.015625 L 7.1875 0 L 6.109375 0 L 6.109375 -3.8125 L 2.171875 -3.8125 L 2.171875 0 L 1.078125 0 Z M 1.078125 -8.015625 "/>
</symbol>
</g>
</defs>
<g id="surface9317">
<rect x="0" y="0" width="300" height="300" style="fill:rgb(100%,100%,100%);fill-opacity:1;stroke:none;"/>
<path style="fill:none;stroke-width:1.2;stroke-linecap:butt;stroke-linejoin:miter;stroke:rgb(100%,0%,0%);stroke-opacity:1;stroke-miterlimit:10;" d="M 160.644531 148.988281 L 173.65625 153.765625 "/>
<path style="fill:none;stroke-width:1.2;stroke-linecap:butt;stroke-linejoin:miter;stroke:rgb(0%,0%,0%);stroke-opacity:1;stroke-miterlimit:10;" d="M 173.65625 153.765625 L 186.671875 158.542969 "/>
<path style="fill:none;stroke-width:1.2;stroke-linecap:butt;stroke-linejoin:miter;stroke:rgb(0%,0%,0%);stroke-opacity:1;stroke-miterlimit:10;" d="M 139.355469 166.75 L 150 157.867188 "/>
<path style="fill:none;stroke-width:1.2;stroke-linecap:butt;stroke-linejoin:miter;stroke:rgb(100%,0%,0%);stroke-opacity:1;stroke-miterlimit:10;" d="M 150 157.867188 L 160.644531 148.988281 "/>
<path style=" stroke:none;fill-rule:nonzero;fill:rgb(100%,100%,100%);fill-opacity:1;" d="M 156.644531 142.488281 L 165.644531 142.488281 L 165.644531 155.488281 L 156.644531 155.488281 Z M 156.644531 142.488281 "/>
<g style="fill:rgb(100%,0%,0%);fill-opacity:1;">
  <use xlink:href="#glyph0-1" x="156.644531" y="152.389648"/>
</g>
<path style="fill:none;stroke-width:1.2;stroke-linecap:butt;stroke-linejoin:miter;stroke:rgb(0%,0%,0%);stroke-opacity:1;stroke-miterlimit:10;" d="M 186.671875 158.542969 L 191.410156 185.863281 "/>
<path style="fill:none;stroke-width:1.2;stroke-linecap:butt;stroke-linejoin:miter;stroke:rgb(0%,0%,0%);stroke-opacity:1;stroke-miterlimit:10;" d="M 193.570312 160.160156 L 197.363281 182.015625 "/>
<path style="fill:none;stroke-width:1.2;stroke-linecap:butt;stroke-linejoin:miter;stroke:rgb(0%,0%,0%);stroke-opacity:1;stroke-miterlimit:10;" d="M 207.960938 140.78125 L 186.671875 158.542969 "/>
<path style="fill:none;stroke-width:1.2;stroke-linecap:butt;stroke-linejoin:miter;stroke:rgb(0%,0%,0%);stroke-opacity:1;stroke-miterlimit:10;" d="M 191.410156 185.863281 L 217.433594 195.417969 "/>
<path style="fill:none;stroke-width:1.2;stroke-linecap:butt;stroke-linejoin:miter;stroke:rgb(0%,0%,0%);stroke-opacity:1;stroke-miterlimit:10;" d="M 191.410156 185.863281 L 170.121094 203.625 "/>
<path style="fill:none;stroke-width:1.2;stroke-linecap:butt;stroke-linejoin:miter;stroke:rgb(0%,0%,0%);stroke-opacity:1;stroke-miterlimit:10;" d="M 217.433594 195.417969 L 238.722656 177.65625 "/>
<path style="fill:none;stroke-width:1.2;stroke-linecap:butt;stroke-linejoin:miter;stroke:rgb(0%,0%,0%);stroke-opacity:1;stroke-miterlimit:10;" d="M 215.382812 188.632812 L 232.414062 174.421875 "/>
<path style="fill:none;stroke-width:1.2;stroke-linecap:butt;stroke-linejoin:miter;stroke:rgb(0%,0%,0%);stroke-opacity:1;stroke-miterlimit:10;" d="M 238.722656 177.65625 L 233.984375 150.339844 "/>
<path style="fill:none;stroke-width:1.2;stroke-linecap:butt;stroke-linejoin:miter;stroke:rgb(0%,0%,0%);stroke-opacity:1;stroke-miterlimit:10;" d="M 238.722656 177.65625 L 264.75 187.210938 "/>
<path style="fill:none;stroke-width:1.2;stroke-linecap:butt;stroke-linejoin:miter;stroke:rgb(0%,0%,0%);stroke-opacity:1;stroke-miterlimit:10;" d="M 233.984375 150.339844 L 207.960938 140.78125 "/>
<path style="fill:none;stroke-width:1.2;stroke-linecap:butt;stroke-linejoin:miter;stroke:rgb(0%,0%,0%);stroke-opacity:1;stroke-miterlimit:10;" d="M 229.136719 155.507812 L 208.3125 147.863281 "/>
<path style="fill:none;stroke-width:1.2;stroke-linecap:butt;stroke-linejoin:miter;stroke:rgb(0%,0%,0%);stroke-opacity:1;stroke-miterlimit:10;" d="M 207.960938 140.78125 L 205.589844 127.125 "/>
<path style="fill:none;stroke-width:1.2;stroke-linecap:butt;stroke-linejoin:miter;stroke:rgb(0%,0%,100%);stroke-opacity:1;stroke-miterlimit:10;" d="M 205.589844 127.125 L 203.222656 113.464844 "/>
<path style="fill:none;stroke-width:1.2;stroke-linecap:butt;stroke-linejoin:miter;stroke:rgb(0%,0%,100%);stroke-opacity:1;stroke-miterlimit:10;" d="M 203.222656 113.464844 L 190.78125 107.351562 "/>
<path style="fill:none;stroke-width:1.2;stroke-linecap:butt;stroke-linejoin:miter;stroke:rgb(0%,0%,0%);stroke-opacity:1;stroke-miterlimit:10;" d="M 190.78125 107.351562 L 178.335938 101.242188 "/>
<path style="fill:none;stroke-width:1.2;stroke-linecap:butt;stroke-linejoin:miter;stroke:rgb(0%,0%,0%);stroke-opacity:1;stroke-miterlimit:10;" d="M 222.539062 93.574219 L 212.878906 103.519531 "/>
<path style="fill:none;stroke-width:1.2;stroke-linecap:butt;stroke-linejoin:miter;stroke:rgb(0%,0%,100%);stroke-opacity:1;stroke-miterlimit:10;" d="M 212.878906 103.519531 L 203.222656 113.464844 "/>
<path style=" stroke:none;fill-rule:nonzero;fill:rgb(100%,100%,100%);fill-opacity:1;" d="M 199.222656 106.964844 L 207.222656 106.964844 L 207.222656 119.964844 L 199.222656 119.964844 Z M 199.222656 106.964844 "/>
<g style="fill:rgb(0%,0%,100%);fill-opacity:1;">
  <use xlink:href="#glyph0-2" x="199.222656" y="116.866211"/>
</g>
<path style="fill:none;stroke-width:1.2;stroke-linecap:butt;stroke-linejoin:miter;stroke:rgb(0%,0%,0%);stroke-opacity:1;stroke-miterlimit:10;" d="M 178.335938 101.242188 L 182.273438 73.796875 "/>
<path style="fill:none;stroke-width:1.2;stroke-linecap:butt;stroke-linejoin:miter;stroke:rgb(0%,0%,0%);stroke-opacity:1;stroke-miterlimit:10;" d="M 182.273438 73.796875 L 209.589844 69.058594 "/>
<path style="fill:none;stroke-width:1.2;stroke-linecap:butt;stroke-linejoin:miter;stroke:rgb(0%,0%,0%);stroke-opacity:1;stroke-miterlimit:10;" d="M 209.589844 69.058594 L 222.539062 93.574219 "/>
<path style="fill:none;stroke-width:1.2;stroke-linecap:butt;stroke-linejoin:miter;stroke:rgb(0%,0%,0%);stroke-opacity:1;stroke-miterlimit:10;" d="M 222.074219 96.804688 L 235.796875 98.773438 "/>
<path style="fill:none;stroke-width:1.2;stroke-linecap:butt;stroke-linejoin:miter;stroke:rgb(100%,0%,0%);stroke-opacity:1;stroke-miterlimit:10;" d="M 235.796875 98.773438 L 249.519531 100.742188 "/>
<path style="fill:none;stroke-width:1.2;stroke-linecap:butt;stroke-linejoin:miter;stroke:rgb(0%,0%,0%);stroke-opacity:1;stroke-miterlimit:10;" d="M 223 90.347656 L 236.722656 92.316406 "/>
<path style="fill:none;stroke-width:1.2;stroke-linecap:butt;stroke-linejoin:miter;stroke:rgb(100%,0%,0%);stroke-opacity:1;stroke-miterlimit:10;" d="M 236.722656 92.316406 L 250.445312 94.28125 "/>
<path style=" stroke:none;fill-rule:nonzero;fill:rgb(100%,100%,100%);fill-opacity:1;" d="M 245.984375 91.011719 L 254.984375 91.011719 L 254.984375 104.011719 L 245.984375 104.011719 Z M 245.984375 91.011719 "/>
<g style="fill:rgb(100%,0%,0%);fill-opacity:1;">
  <use xlink:href="#glyph0-1" x="245.984375" y="100.913086"/>
</g>
<path style="fill:none;stroke-width:1.2;stroke-linecap:butt;stroke-linejoin:miter;stroke:rgb(0%,0%,0%);stroke-opacity:1;stroke-miterlimit:10;" d="M 166.90625 204.179688 L 169.273438 217.839844 "/>
<path style="fill:none;stroke-width:1.2;stroke-linecap:butt;stroke-linejoin:miter;stroke:rgb(100%,0%,0%);stroke-opacity:1;stroke-miterlimit:10;" d="M 169.273438 217.839844 L 171.644531 231.5 "/>
<path style="fill:none;stroke-width:1.2;stroke-linecap:butt;stroke-linejoin:miter;stroke:rgb(0%,0%,0%);stroke-opacity:1;stroke-miterlimit:10;" d="M 173.332031 203.066406 L 175.703125 216.726562 "/>
<path style="fill:none;stroke-width:1.2;stroke-linecap:butt;stroke-linejoin:miter;stroke:rgb(100%,0%,0%);stroke-opacity:1;stroke-miterlimit:10;" d="M 175.703125 216.726562 L 178.070312 230.382812 "/>
<path style="fill:none;stroke-width:1.2;stroke-linecap:butt;stroke-linejoin:miter;stroke:rgb(0%,0%,0%);stroke-opacity:1;stroke-miterlimit:10;" d="M 170.121094 203.625 L 144.09375 194.066406 "/>
<path style=" stroke:none;fill-rule:nonzero;fill:rgb(100%,100%,100%);fill-opacity:1;" d="M 170.855469 224.441406 L 179.855469 224.441406 L 179.855469 237.441406 L 170.855469 237.441406 Z M 170.855469 224.441406 "/>
<g style="fill:rgb(100%,0%,0%);fill-opacity:1;">
  <use xlink:href="#glyph0-1" x="170.855469" y="234.342773"/>
</g>
<path style="fill:none;stroke-width:1.2;stroke-linecap:butt;stroke-linejoin:miter;stroke:rgb(0%,0%,0%);stroke-opacity:1;stroke-miterlimit:10;" d="M 144.09375 194.066406 L 133.449219 202.949219 "/>
<path style="fill:none;stroke-width:1.2;stroke-linecap:butt;stroke-linejoin:miter;stroke:rgb(100%,0%,0%);stroke-opacity:1;stroke-miterlimit:10;" d="M 133.449219 202.949219 L 122.804688 211.828125 "/>
<path style="fill:none;stroke-width:1.2;stroke-linecap:butt;stroke-linejoin:miter;stroke:rgb(0%,0%,0%);stroke-opacity:1;stroke-miterlimit:10;" d="M 144.09375 194.066406 L 139.355469 166.75 "/>
<path style="fill:none;stroke-width:1.2;stroke-linecap:butt;stroke-linejoin:miter;stroke:rgb(0%,0%,0%);stroke-opacity:1;stroke-miterlimit:10;" d="M 150.046875 190.222656 L 146.257812 168.367188 "/>
<path style=" stroke:none;fill-rule:nonzero;fill:rgb(100%,100%,100%);fill-opacity:1;" d="M 105.804688 205.328125 L 122.804688 205.328125 L 122.804688 218.328125 L 105.804688 218.328125 Z M 105.804688 205.328125 "/>
<g style="fill:rgb(100%,0%,0%);fill-opacity:1;">
  <use xlink:href="#glyph0-3" x="105.804688" y="215.229492"/>
  <use xlink:href="#glyph0-1" x="113.829102" y="215.229492"/>
</g>
<path style="fill:none;stroke-width:1.2;stroke-linecap:butt;stroke-linejoin:miter;stroke:rgb(0%,0%,0%);stroke-opacity:1;stroke-miterlimit:10;" d="M 139.355469 166.75 L 113.328125 157.195312 "/>
<path style="fill:none;stroke-width:1.2;stroke-linecap:butt;stroke-linejoin:miter;stroke:rgb(0%,0%,0%);stroke-opacity:1;stroke-miterlimit:10;" d="M 113.328125 157.195312 L 108.589844 129.875 "/>
<path style="fill:none;stroke-width:1.2;stroke-linecap:butt;stroke-linejoin:miter;stroke:rgb(0%,0%,0%);stroke-opacity:1;stroke-miterlimit:10;" d="M 106.429688 155.578125 L 102.636719 133.722656 "/>
<path style="fill:none;stroke-width:1.2;stroke-linecap:butt;stroke-linejoin:miter;stroke:rgb(0%,0%,0%);stroke-opacity:1;stroke-miterlimit:10;" d="M 92.039062 174.957031 L 113.328125 157.195312 "/>
<path style="fill:none;stroke-width:1.2;stroke-linecap:butt;stroke-linejoin:miter;stroke:rgb(0%,0%,0%);stroke-opacity:1;stroke-miterlimit:10;" d="M 108.589844 129.875 L 82.566406 120.320312 "/>
<path style="fill:none;stroke-width:1.2;stroke-linecap:butt;stroke-linejoin:miter;stroke:rgb(0%,0%,0%);stroke-opacity:1;stroke-miterlimit:10;" d="M 82.566406 120.320312 L 80.195312 106.660156 "/>
<path style="fill:none;stroke-width:1.2;stroke-linecap:butt;stroke-linejoin:miter;stroke:rgb(100%,0%,0%);stroke-opacity:1;stroke-miterlimit:10;" d="M 80.195312 106.660156 L 77.828125 93.003906 "/>
<path style="fill:none;stroke-width:1.2;stroke-linecap:butt;stroke-linejoin:miter;stroke:rgb(0%,0%,0%);stroke-opacity:1;stroke-miterlimit:10;" d="M 82.566406 120.320312 L 61.277344 138.082031 "/>
<path style="fill:none;stroke-width:1.2;stroke-linecap:butt;stroke-linejoin:miter;stroke:rgb(0%,0%,0%);stroke-opacity:1;stroke-miterlimit:10;" d="M 84.617188 127.105469 L 67.585938 141.316406 "/>
<path style=" stroke:none;fill-rule:nonzero;fill:rgb(100%,100%,100%);fill-opacity:1;" d="M 69.828125 86.503906 L 86.828125 86.503906 L 86.828125 99.503906 L 69.828125 99.503906 Z M 69.828125 86.503906 "/>
<g style="fill:rgb(100%,0%,0%);fill-opacity:1;">
  <use xlink:href="#glyph0-3" x="69.828125" y="96.405273"/>
  <use xlink:href="#glyph0-1" x="77.852539" y="96.405273"/>
</g>
<path style="fill:none;stroke-width:1.2;stroke-linecap:butt;stroke-linejoin:miter;stroke:rgb(0%,0%,0%);stroke-opacity:1;stroke-miterlimit:10;" d="M 61.277344 138.082031 L 48.261719 133.304688 "/>
<path style="fill:none;stroke-width:1.2;stroke-linecap:butt;stroke-linejoin:miter;stroke:rgb(100%,0%,0%);stroke-opacity:1;stroke-miterlimit:10;" d="M 48.261719 133.304688 L 35.25 128.527344 "/>
<path style="fill:none;stroke-width:1.2;stroke-linecap:butt;stroke-linejoin:miter;stroke:rgb(0%,0%,0%);stroke-opacity:1;stroke-miterlimit:10;" d="M 61.277344 138.082031 L 66.015625 165.398438 "/>
<path style=" stroke:none;fill-rule:nonzero;fill:rgb(100%,100%,100%);fill-opacity:1;" d="M 18.25 122.027344 L 35.25 122.027344 L 35.25 135.027344 L 18.25 135.027344 Z M 18.25 122.027344 "/>
<g style="fill:rgb(100%,0%,0%);fill-opacity:1;">
  <use xlink:href="#glyph0-3" x="18.25" y="131.928711"/>
  <use xlink:href="#glyph0-1" x="26.274414" y="131.928711"/>
</g>
<path style="fill:none;stroke-width:1.2;stroke-linecap:butt;stroke-linejoin:miter;stroke:rgb(0%,0%,0%);stroke-opacity:1;stroke-miterlimit:10;" d="M 66.015625 165.398438 L 92.039062 174.957031 "/>
<path style="fill:none;stroke-width:1.2;stroke-linecap:butt;stroke-linejoin:miter;stroke:rgb(0%,0%,0%);stroke-opacity:1;stroke-miterlimit:10;" d="M 70.863281 160.230469 L 91.6875 167.875 "/>
</g>
</svg>

<svg xmlns="http://www.w3.org/2000/svg" xmlns:xlink="http://www.w3.org/1999/xlink" width="300pt" height="300pt" viewBox="0 0 300 300"><defs><symbol overflow="visible"><path d="M.547 1.938V-7.75h5.5v9.688zm.625-.61h4.266v-8.47H1.171zm0 0"/></symbol><symbol overflow="visible" id="a"><path d="M4.328-7.28c-.78 0-1.406.296-1.875.89-.46.585-.687 1.382-.687 2.39 0 1.012.226 1.813.687 2.406.47.586 1.094.875 1.875.875.79 0 1.414-.288 1.875-.874.457-.593.688-1.394.688-2.406 0-1.008-.23-1.805-.687-2.39-.46-.594-1.086-.89-1.875-.89zm0-.892c1.125 0 2.024.383 2.703 1.14C7.708-6.28 8.048-5.27 8.048-4c0 1.262-.34 2.273-1.016 3.03C6.353-.22 5.454.157 4.33.157S2.3-.22 1.625-.97c-.668-.75-1-1.757-1-3.03 0-1.27.332-2.28 1-3.03.676-.76 1.578-1.142 2.703-1.142zm0 0"/></symbol><symbol overflow="visible" id="b"><path d="M1.078-8.016h1.47l3.546 6.704v-6.704h1.062V0H5.688L2.124-6.703V0H1.078zm0 0"/></symbol><symbol overflow="visible" id="c"><path d="M1.078-8.016h1.094v3.282H6.11v-3.282h1.077V0H6.11v-3.813H2.17V0H1.078zm0 0"/></symbol></defs><g><path fill="#fff" d="M0 0h300v300H0z"/><path d="M160.645 148.988l13.01 4.778" stroke-width="1.2" stroke="#f00" stroke-miterlimit="10" fill="none"/><path d="M173.656 153.766l13.016 4.777M139.355 166.75L150 157.867" stroke-width="1.2" stroke="#000" stroke-miterlimit="10" fill="none"/><path d="M150 157.867l10.645-8.88" stroke-width="1.2" stroke="#f00" stroke-miterlimit="10" fill="none"/><path d="M156.645 142.488h9v13h-9zm0 0" fill="#fff"/><use xlink:href="#a" x="156.645" y="152.39" fill="#f00"/><path d="M186.672 158.543l4.738 27.32M193.57 160.16l3.793 21.856M207.96 140.78l-21.288 17.763M191.41 185.863l26.024 9.555M191.41 185.863l-21.29 17.762M217.434 195.418l21.29-17.762M215.383 188.633l17.03-14.21M238.723 177.656l-4.74-27.316M238.723 177.656l26.027 9.555M233.984 150.34l-26.023-9.56M229.137 155.508l-20.825-7.645M207.96 140.78l-2.37-13.655" stroke-width="1.2" stroke="#000" stroke-miterlimit="10" fill="none"/><path d="M205.59 127.125l-2.367-13.66M203.223 113.465l-12.442-6.113" stroke-width="1.2" stroke="#00f" stroke-miterlimit="10" fill="none"/><path d="M190.78 107.352l-12.444-6.11M222.54 93.574l-9.66 9.946" stroke-width="1.2" stroke="#000" stroke-miterlimit="10" fill="none"/><path d="M212.88 103.52l-9.657 9.945" stroke-width="1.2" stroke="#00f" stroke-miterlimit="10" fill="none"/><path d="M199.223 106.965h8v13h-8zm0 0" fill="#fff"/><use xlink:href="#b" x="199.223" y="116.866" fill="#00f"/><path d="M178.336 101.242l3.937-27.445M182.273 73.797l27.317-4.738M209.59 69.06l12.95 24.514M222.074 96.805l13.723 1.968" stroke-width="1.2" stroke="#000" stroke-miterlimit="10" fill="none"/><path d="M235.797 98.773l13.723 1.97" stroke-width="1.2" stroke="#f00" stroke-miterlimit="10" fill="none"/><path d="M223 90.348l13.723 1.968" stroke-width="1.2" stroke="#000" stroke-miterlimit="10" fill="none"/><path d="M236.723 92.316l13.722 1.965" stroke-width="1.2" stroke="#f00" stroke-miterlimit="10" fill="none"/><path d="M245.984 91.012h9v13h-9zm0 0" fill="#fff"/><use xlink:href="#a" x="245.984" y="100.913" fill="#f00"/><path d="M166.906 204.18l2.367 13.66" stroke-width="1.2" stroke="#000" stroke-miterlimit="10" fill="none"/><path d="M169.273 217.84l2.372 13.66" stroke-width="1.2" stroke="#f00" stroke-miterlimit="10" fill="none"/><path d="M173.332 203.066l2.37 13.66" stroke-width="1.2" stroke="#000" stroke-miterlimit="10" fill="none"/><path d="M175.703 216.727l2.367 13.656" stroke-width="1.2" stroke="#f00" stroke-miterlimit="10" fill="none"/><path d="M170.12 203.625l-26.026-9.56" stroke-width="1.2" stroke="#000" stroke-miterlimit="10" fill="none"/><path d="M170.855 224.44h9v13h-9zm0 0" fill="#fff"/><use xlink:href="#a" x="170.855" y="234.343" fill="#f00"/><path d="M144.094 194.066l-10.645 8.883" stroke-width="1.2" stroke="#000" stroke-miterlimit="10" fill="none"/><path d="M133.45 202.95l-10.645 8.878" stroke-width="1.2" stroke="#f00" stroke-miterlimit="10" fill="none"/><path d="M144.094 194.066l-4.74-27.316M150.047 190.223l-3.79-21.856" stroke-width="1.2" stroke="#000" stroke-miterlimit="10" fill="none"/><path d="M105.805 205.328h17v13h-17zm0 0" fill="#fff"/><g fill="#f00"><use xlink:href="#c" x="105.805" y="215.229"/><use xlink:href="#a" x="113.829" y="215.229"/></g><path d="M139.355 166.75l-26.027-9.555M113.328 157.195l-4.738-27.32M106.43 155.578l-3.793-21.855M92.04 174.957l21.288-17.762M108.59 129.875l-26.024-9.555M82.566 120.32l-2.37-13.66" stroke-width="1.2" stroke="#000" stroke-miterlimit="10" fill="none"/><path d="M80.195 106.66l-2.367-13.656" stroke-width="1.2" stroke="#f00" stroke-miterlimit="10" fill="none"/><path d="M82.566 120.32l-21.29 17.762M84.617 127.105l-17.03 14.21" stroke-width="1.2" stroke="#000" stroke-miterlimit="10" fill="none"/><path d="M69.828 86.504h17v13h-17zm0 0" fill="#fff"/><g fill="#f00"><use xlink:href="#c" x="69.828" y="96.405"/><use xlink:href="#a" x="77.853" y="96.405"/></g><path d="M61.277 138.082l-13.015-4.777" stroke-width="1.2" stroke="#000" stroke-miterlimit="10" fill="none"/><path d="M48.262 133.305l-13.012-4.778" stroke-width="1.2" stroke="#f00" stroke-miterlimit="10" fill="none"/><path d="M61.277 138.082l4.74 27.316" stroke-width="1.2" stroke="#000" stroke-miterlimit="10" fill="none"/><path d="M18.25 122.027h17v13h-17zm0 0" fill="#fff"/><g fill="#f00"><use xlink:href="#c" x="18.25" y="131.929"/><use xlink:href="#a" x="26.274" y="131.929"/></g><path d="M66.016 165.398l26.023 9.56M70.863 160.23l20.825 7.645" stroke-width="1.2" stroke="#000" stroke-miterlimit="10" fill="none"/></g></svg>
